resources/svg/tools-fill.svg

<svg fill="currentColor" viewBox="0 0 24 24" xmlns="http://www.w3.org/2000/svg"><path d="M5.32894 3.27158C6.56203 2.8332 7.99181 3.10749 8.97878 4.09446C9.96603 5.08171 10.2402 6.51202 9.80129 7.74535L20.646 18.5902L18.5247 20.7115L7.67887 9.86709C6.44578 10.3055 5.016 10.0312 4.02903 9.04421C3.04178 8.05696 2.76761 6.62665 3.20652 5.39332L5.44325 7.63C6.02903 8.21578 6.97878 8.21578 7.56457 7.63C8.15035 7.04421 8.15035 6.09446 7.56457 5.50868L5.32894 3.27158ZM15.6963 5.15512L18.8783 3.38736L20.2925 4.80157L18.5247 7.98355L16.757 8.3371L14.6356 10.4584L13.2214 9.04421L15.3427 6.92289L15.6963 5.15512ZM8.62523 12.9333L10.7465 15.0546L5.7968 20.0044C5.21101 20.5902 4.26127 20.5902 3.67548 20.0044C3.12415 19.453 3.09172 18.5793 3.57819 17.99L3.67548 17.883L8.62523 12.9333Z"/></svg>

<svg xmlns="http://www.w3.org/2000/svg" viewBox="0 0 24 24" fill="currentColor">
    <g>
        <path fill="none" d="M0 0h24v24H0z"/>
        <path d="M5.33 3.271a3.5 3.5 0 0 1 4.472 4.474L20.647 18.59l-2.122 2.121L7.68 9.867a3.5 3.5 0 0 1-4.472-4.474L5.444 7.63a1.5 1.5 0 1 0 2.121-2.121L5.329 3.27zm10.367 1.884l3.182-1.768 1.414 1.414-1.768 3.182-1.768.354-2.12 2.121-1.415-1.414 2.121-2.121.354-1.768zm-7.071 7.778l2.121 2.122-4.95 4.95A1.5 1.5 0 0 1 3.58 17.99l.097-.107 4.95-4.95z"/>
    </g>
</svg>
